X:1
T:Eowyn's Theme
C:Howard Shore
Z:Merecraft of Laurelin
Q:1/4=76
M:3/4
L:1/8
K:Bb
E2 B2 Bc/B/ |A2 F2 z2 |E2 B2 z2 |A2 F,C, A,2 |E2 B2 Bc/B/ |A2 F2 z2 |G2 d2 z2 |G,D, A,D, B,2 |E2 B2 G,2 |AC, F,C, A/F/A/F/ |G2 G,D, B,2 |G,D, G,D, B,2 |E2 BB, G,2 |A c2 c Bc |d6 |]
%End of file
